X: 29115
T: Nellie The Elephant
R: jig
M: 6/8
K: Gmajor
|:Bcd BAG|B2B d2d|e2e gfe|d3 B3|c2c AAA|
ddd B3|1 f3 e3|ded cBA:|2 e3 F3|(G3 G2)G||
GBd g2f|g3 d3|e3 d2c|(B3-B2) B|
A2B ^cBA|d2e ffg|a2g f2e|ded cBA|
Bcd BAG|B2B d2d|e2e gfe|d3 B3|
c2c AAA|ddd B3|e3 F3|G6||

